src/images_karasa_jaga_svg/cmd/sc_leaveallgroups.svg

<svg height="16" width="16" xmlns="http://www.w3.org/2000/svg" xmlns:xlink="http://www.w3.org/1999/xlink"><linearGradient id="a" gradientTransform="matrix(.09253752 0 0 .14870594 -6.00486 -81.716489)" gradientUnits="userSpaceOnUse" x1="399.77466" x2="399.77466" xlink:href="#b" y1="1164.6696" y2="549.06134"/><linearGradient id="b"><stop offset="0" stop-color="#717174"/><stop offset=".5" stop-color="#9c9ca1"/><stop offset="1" stop-color="#bdbdc2"/></linearGradient><linearGradient id="c" gradientTransform="matrix(.76189483 0 0 1.0158609 -3.046726 -19.300523)" gradientUnits="userSpaceOnUse" x1="119.57646" x2="15.999996" xlink:href="#d" y1="23.792561" y2="109.6508"/><linearGradient id="d"><stop offset="0" stop-color="#fff"/><stop offset=".42597079" stop-color="#fff"/><stop offset=".5892781" stop-color="#e5e5e5"/><stop offset=".80219781" stop-color="#eaeaea"/><stop offset="1" stop-color="#eee"/></linearGradient><linearGradient id="e" gradientTransform="matrix(0 -1.8256937 -2.2856842 0 118.85641 200.15699)" gradientUnits="userSpaceOnUse" x1="102.31124" x2="74.330322" xlink:href="#f" y1="-5.830213" y2="32"/><linearGradient id="f"><stop offset="0" stop-color="#fff"/><stop offset="1" stop-color="#fff" stop-opacity="0"/></linearGradient><linearGradient id="g" gradientUnits="userSpaceOnUse" x1="43.016977" x2="124.98526" y1="43.99889" y2="43.99889"><stop offset="0" stop-color="#b4b4b6"/><stop offset=".5" stop-color="#9c9ca1"/><stop offset="1" stop-color="#cdcdd1"/></linearGradient><linearGradient id="h" gradientUnits="userSpaceOnUse" x1="63.947916" x2="112.628782" xlink:href="#d" y1="70.762864" y2="20.037928"/><linearGradient id="i" gradientUnits="userSpaceOnUse" x1="127.841549" x2="99.54153" xlink:href="#f" y1="16.85721" y2="46.207414"/><linearGradient id="j" gradientTransform="matrix(-1 0 0 -1 70.7205 599.52222)" gradientUnits="userSpaceOnUse" x1="34.999939" x2="31.448986" y1="561.00018" y2="565.14764"><stop offset="0" stop-color="#f7a5a0"/><stop offset="1" stop-color="#cd1f00"/></linearGradient><radialGradient id="k" cx="34.35376" cy="561.81543" gradientTransform="matrix(-1.3532032 .00000004 -.00000004 -1.3528358 82.8544 797.75064)" gradientUnits="userSpaceOnUse" r="4"><stop offset="0" stop-color="#590000"/><stop offset="1" stop-color="#bf0000"/></radialGradient><linearGradient id="l" gradientUnits="userSpaceOnUse" x1="124.472027" x2="130.666667" xlink:href="#b" y1="1.444556" y2="25.295367"/><g transform="scale(.125)"><use height="100%" transform="translate(-80)" width="100%" xlink:href="#m"/><use height="100%" transform="translate(-120 32)" width="100%" xlink:href="#m"/><use height="100%" transform="translate(-120 120)" width="100%" xlink:href="#m"/><use height="100%" transform="translate(-32 120)" width="100%" xlink:href="#m"/><use height="100%" transform="translate(0 80)" width="100%" xlink:href="#m"/><path d="m-9.141919-9.141917h146.28384v146.28384h-146.28384z" fill="#e7e7e7" opacity="0"/><g transform="matrix(.74999783 0 0 .74999783 11.999375 45.269979)"><rect fill="url(#a)" height="106.66698" opacity=".75" rx="3.628262" ry="4.219727" transform="matrix(0 1 1 0 0 0)" width="106.66698" x="-7.026659" y="-5.332515"/><g fill-rule="evenodd"><rect fill="url(#c)" height="85.33358" rx="1.687967" ry="2.031721" transform="matrix(0 1 1 0 0 0)" width="85.33358" x="3.640039" y="5.334182"/><path d="m90.667762 31.573906c-21.549668 19.505031-57.049677 37.035382-85.3335799 48.426048v-49.693172c27.0784579-2.783233 63.7319809-6.755703 85.3335799-18.732876z" fill="url(#e)"/></g></g><circle cx="84.001114" cy="43.998886" fill="url(#g)" r="40.984135"/><path id="m" d="m120 0h8v8h-8z" fill="url(#l)"/><g transform="matrix(1.0728257 0 0 1.0728257 -7.492537 -1.091083)"><circle cx="85.289543" cy="42.029163" fill="url(#h)" r="32.102268"/><path d="m110.64543 21.330439c-17.187855 9.066976-39.106764 19.156263-57.820384 21.07972v2.591274a32.448251 32.448251 0 0 0 21.511196 26.797398c15.502301-10.445251 30.685208-24.080647 42.778938-35.036447a32.448251 32.448251 0 0 0 -6.46975-15.431945z" fill="url(#i)" fill-rule="evenodd"/></g><path d="m40 0v32h-40v96h96v-40h32v-88z" fill="#10c4f8" fill-opacity=".288235" opacity=".99"/><g transform="matrix(0 8 -8 0 324.17634 -269.76448)"><path d="m34.72056 39.522042 4-.00001-.00002-1.00001-2 .00002 4.00001-4-1.00001-1.00001-3.99999 4 .00002-2-1.00001.00002z" fill="none" stroke="url(#k)" stroke-linejoin="round" stroke-width="2"/><path d="m34.72056 39.522042 4-.00001-.00002-1.00001-2 .00002 4.00001-4-1.00001-1.00001-3.99999 4 .00002-2-1.00001.00002z" fill="url(#j)" fill-rule="evenodd"/></g></g></svg>

<?xml version="1.0" encoding="UTF-8" standalone="no"?>
<!-- Created with Inkscape (http://www.inkscape.org/) -->

<svg
   xmlns:dc="http://purl.org/dc/elements/1.1/"
   xmlns:cc="http://creativecommons.org/ns#"
   xmlns:rdf="http://www.w3.org/1999/02/22-rdf-syntax-ns#"
   xmlns:svg="http://www.w3.org/2000/svg"
   xmlns="http://www.w3.org/2000/svg"
   xmlns:xlink="http://www.w3.org/1999/xlink"
   xmlns:sodipodi="http://sodipodi.sourceforge.net/DTD/sodipodi-0.dtd"
   xmlns:inkscape="http://www.inkscape.org/namespaces/inkscape"
   width="128"
   height="128"
   id="svg1307"
   sodipodi:version="0.32"
   inkscape:version="0.92.3 (unknown)"
   version="1.0"
   sodipodi:docname="sc_leaveallgroups.svg"
   inkscape:export-filename="/home/rizmut/Dokumen/Rizmut/Github/libreoffice-style-karasa-jaga/build/images_karasa_jaga/cmd/sc_leaveallgroups.png"
   inkscape:export-xdpi="12"
   inkscape:export-ydpi="12"
   inkscape:output_extension="org.inkscape.output.svgz.inkscape">
  <defs
     id="defs1309">
    <linearGradient
       id="linearGradient2783">
      <stop
         style="stop-color:#323232;stop-opacity:1;"
         offset="0"
         id="stop2785" />
      <stop
         id="stop2787"
         offset="0.07692308"
         style="stop-color:#dfe1e1;stop-opacity:1;" />
      <stop
         style="stop-color:#b6b1b1;stop-opacity:1;"
         offset="0.26289096"
         id="stop2799" />
      <stop
         id="stop2789"
         offset="0.5"
         style="stop-color:#8d8282;stop-opacity:1;" />
      <stop
         style="stop-color:#ffffff;stop-opacity:1;"
         offset="0.78201604"
         id="stop2791" />
      <stop
         style="stop-color:#dfd9df;stop-opacity:1;"
         offset="0.9005897"
         id="stop2793" />
      <stop
         style="stop-color:#3a3a3a;stop-opacity:1;"
         offset="1"
         id="stop2795" />
    </linearGradient>
    <linearGradient
       id="linearGradient2431">
      <stop
         style="stop-color:#ffffff;stop-opacity:1;"
         offset="0"
         id="stop2433" />
      <stop
         id="stop2435"
         offset="0.42597079"
         style="stop-color:#ffffff;stop-opacity:1;" />
      <stop
         id="stop2437"
         offset="0.5892781"
         style="stop-color:#f1f1f1;stop-opacity:1;" />
      <stop
         style="stop-color:#eaeaea;stop-opacity:1;"
         offset="0.80219781"
         id="stop2439" />
      <stop
         style="stop-color:#dfdfdf;stop-opacity:1;"
         offset="1"
         id="stop2441" />
    </linearGradient>
    <linearGradient
       id="linearGradient7422">
      <stop
         style="stop-color:#b4b4b6;stop-opacity:1;"
         offset="0"
         id="stop7424" />
      <stop
         id="stop5348"
         offset="0.5"
         style="stop-color:#9c9ca1;stop-opacity:1;" />
      <stop
         id="stop7426"
         offset="1"
         style="stop-color:#cdcdd1;stop-opacity:1;" />
    </linearGradient>
    <clipPath
       clipPathUnits="userSpaceOnUse"
       id="clipPath10698">
      <path
         style="fill:#ffffff;fill-opacity:1;fill-rule:nonzero;stroke:none;stroke-width:0.80000001;stroke-linecap:round;stroke-linejoin:round;stroke-miterlimit:4;stroke-dasharray:none;stroke-dashoffset:4;stroke-opacity:1"
         d="M -128.2008,-3.392377 L -104.45558,6.3360672 L -102.43766,6.1757677 L -103.81912,-4.5678172 L -105.75454,-5.8316609 L -124.96922,-4.4459394 L -128.2008,-3.392377 z "
         id="path10700"
         sodipodi:nodetypes="ccccccc" />
    </clipPath>
    <filter
       inkscape:collect="always"
       id="filter4420">
      <feGaussianBlur
         inkscape:collect="always"
         stdDeviation="3.0486726"
         id="feGaussianBlur4422" />
    </filter>
    <mask
       maskUnits="userSpaceOnUse"
       id="mask4424">
      <rect
         style="opacity:1;fill:#ffffff;fill-opacity:1;stroke:none;stroke-width:0.163;stroke-linecap:round;stroke-linejoin:round;stroke-miterlimit:4;stroke-dasharray:none;stroke-opacity:1;filter:url(#filter4420)"
         id="rect4426"
         width="112"
         height="100"
         x="12"
         y="4"
         rx="1.1997639"
         ry="1.4444447"
         transform="matrix(1.1453342,0,0,1.1453342,-3.2375486,-15.52592)" />
    </mask>
    <linearGradient
       id="linearGradient3323">
      <stop
         style="stop-color:#c7cdd7;stop-opacity:1;"
         offset="0"
         id="stop3325" />
      <stop
         style="stop-color:#ffffff;stop-opacity:1;"
         offset="1"
         id="stop3327" />
    </linearGradient>
    <linearGradient
       id="linearGradient4199">
      <stop
         style="stop-color:#f1f1f1;stop-opacity:1;"
         offset="0"
         id="stop4201-6" />
      <stop
         style="stop-color:#ffffff;stop-opacity:1;"
         offset="1"
         id="stop4203" />
    </linearGradient>
    <linearGradient
       id="linearGradient2399-5-5">
      <stop
         id="stop2401-5-5"
         offset="0"
         style="stop-color:#0968ef;stop-opacity:1;" />
      <stop
         id="stop2403-6-4"
         offset="1"
         style="stop-color:#aecffc;stop-opacity:1;" />
    </linearGradient>
    <linearGradient
       x1="399.77466"
       y1="1164.6696"
       x2="399.77466"
       y2="549.06134"
       id="linearGradient5507"
       xlink:href="#linearGradient7422-3"
       gradientUnits="userSpaceOnUse"
       gradientTransform="matrix(0.09253752,0,0,0.14870594,30.566011,47.945876)" />
    <linearGradient
       id="linearGradient7422-3">
      <stop
         id="stop7424-5"
         style="stop-color:#717174;stop-opacity:1"
         offset="0" />
      <stop
         id="stop5348-6"
         style="stop-color:#9c9ca1;stop-opacity:1"
         offset="0.5" />
      <stop
         id="stop7426-2"
         style="stop-color:#cdcdd1;stop-opacity:1"
         offset="1" />
    </linearGradient>
    <radialGradient
       cx="-33.5"
       cy="194.5"
       r="5.5"
       fx="-33.5"
       fy="194.5"
       id="radialGradient5509"
       xlink:href="#linearGradient2399"
       gradientUnits="userSpaceOnUse"
       gradientTransform="matrix(6.6492665,0,0,6.6492656,305.03583,-1117.9053)" />
    <linearGradient
       id="linearGradient2399">
      <stop
         id="stop2401"
         style="stop-color:#a9cbfc;stop-opacity:1"
         offset="0" />
      <stop
         id="stop2403"
         style="stop-color:#aecffc;stop-opacity:1"
         offset="1" />
    </linearGradient>
    <radialGradient
       cx="194.5"
       cy="-33.5"
       r="5.5"
       fx="194.5"
       fy="-33.5"
       id="radialGradient5511"
       xlink:href="#linearGradient2222"
       gradientUnits="userSpaceOnUse"
       gradientTransform="matrix(4.9357767,0,0,4.9357767,-870.64796,211.73605)" />
    <linearGradient
       id="linearGradient2222">
      <stop
         id="stop2224"
         style="stop-color:#8fbcff;stop-opacity:1"
         offset="0" />
      <stop
         id="stop2226"
         style="stop-color:#80b3ff;stop-opacity:1"
         offset="1" />
    </linearGradient>
    <linearGradient
       x1="399.77466"
       y1="1164.6696"
       x2="399.77466"
       y2="549.06134"
       id="linearGradient5501"
       xlink:href="#linearGradient4373"
       gradientUnits="userSpaceOnUse"
       gradientTransform="matrix(0.09253752,0,0,0.14870594,-6.0048599,-81.716489)" />
    <linearGradient
       id="linearGradient4373">
      <stop
         id="stop4375"
         style="stop-color:#717174;stop-opacity:1"
         offset="0" />
      <stop
         id="stop4377"
         style="stop-color:#9c9ca1;stop-opacity:1"
         offset="0.5" />
      <stop
         id="stop4379"
         style="stop-color:#bdbdc2;stop-opacity:1"
         offset="1" />
    </linearGradient>
    <linearGradient
       x1="119.57646"
       y1="23.792561"
       x2="15.999996"
       y2="109.6508"
       id="linearGradient5503"
       xlink:href="#linearGradient2431-9"
       gradientUnits="userSpaceOnUse"
       gradientTransform="matrix(0.76189483,0,0,1.0158609,-3.0467262,-19.300523)" />
    <linearGradient
       id="linearGradient2431-9">
      <stop
         id="stop2433-1"
         style="stop-color:#ffffff;stop-opacity:1"
         offset="0" />
      <stop
         id="stop2435-2"
         style="stop-color:#ffffff;stop-opacity:1"
         offset="0.42597079" />
      <stop
         id="stop2437-7"
         style="stop-color:#e5e5e5;stop-opacity:1"
         offset="0.5892781" />
      <stop
         id="stop2439-0"
         style="stop-color:#eaeaea;stop-opacity:1"
         offset="0.80219781" />
      <stop
         id="stop2441-9"
         style="stop-color:#eeeeee;stop-opacity:1"
         offset="1" />
    </linearGradient>
    <linearGradient
       x1="102.31124"
       y1="-5.8302126"
       x2="74.330322"
       y2="32"
       id="linearGradient5505"
       xlink:href="#linearGradient3310"
       gradientUnits="userSpaceOnUse"
       gradientTransform="matrix(0,-1.8256937,-2.2856842,0,118.85641,200.15699)" />
    <linearGradient
       id="linearGradient3310">
      <stop
         id="stop3312"
         style="stop-color:#ffffff;stop-opacity:1"
         offset="0" />
      <stop
         id="stop3314"
         style="stop-color:#ffffff;stop-opacity:0"
         offset="1" />
    </linearGradient>
    <linearGradient
       inkscape:collect="always"
       xlink:href="#linearGradient7422"
       id="linearGradient1705"
       x1="53.544228"
       y1="38.029163"
       x2="121.03486"
       y2="38.029163"
       gradientUnits="userSpaceOnUse"
       gradientTransform="matrix(1.2145135,0,0,1.2145135,-22.013211,-2.1880421)" />
    <linearGradient
       inkscape:collect="always"
       xlink:href="#linearGradient4373"
       id="linearGradient1723"
       x1="0"
       y1="122"
       x2="12"
       y2="122"
       gradientUnits="userSpaceOnUse" />
    <linearGradient
       inkscape:collect="always"
       xlink:href="#linearGradient2431-9"
       id="linearGradient1749"
       x1="68"
       y1="64"
       x2="112"
       y2="18.152475"
       gradientUnits="userSpaceOnUse"
       gradientTransform="matrix(1.1063833,0,0,1.1063833,-11.286148,-0.0456671)" />
    <linearGradient
       inkscape:collect="always"
       xlink:href="#linearGradient3310"
       id="linearGradient1755"
       x1="125.30612"
       y1="16"
       x2="100"
       y2="42.245205"
       gradientUnits="userSpaceOnUse"
       gradientTransform="matrix(1.1183073,0,0,1.1183073,-12.2892,-1.035707)" />
    <linearGradient
       inkscape:collect="always"
       xlink:href="#linearGradient4373"
       id="linearGradient931"
       gradientUnits="userSpaceOnUse"
       x1="122.70804"
       y1="2.1668341"
       x2="132"
       y2="37.94305"
       gradientTransform="matrix(0.66666667,0,0,0.66666667,42.666667,0)" />
    <linearGradient
       inkscape:collect="always"
       xlink:href="#linearGradient5161"
       id="linearGradient5131"
       gradientUnits="userSpaceOnUse"
       gradientTransform="rotate(180,35.36025,299.76111)"
       x1="34.999939"
       y1="561.00018"
       x2="31.448986"
       y2="565.14764" />
    <linearGradient
       id="linearGradient5161">
      <stop
         id="stop5163"
         offset="0"
         style="stop-color:#f7a5a0;stop-opacity:1" />
      <stop
         id="stop5165"
         offset="1"
         style="stop-color:#cd1f00;stop-opacity:1;" />
    </linearGradient>
    <radialGradient
       inkscape:collect="always"
       xlink:href="#linearGradient3773"
       id="radialGradient5133"
       gradientUnits="userSpaceOnUse"
       gradientTransform="matrix(-1.3532032,4.3527857e-8,-3.8860884e-8,-1.3528358,82.8544,797.75064)"
       cx="34.35376"
       cy="561.81543"
       fx="34.35376"
       fy="561.81543"
       r="4" />
    <linearGradient
       id="linearGradient3773">
      <stop
         style="stop-color:#590000;stop-opacity:1"
         offset="0"
         id="stop3775" />
      <stop
         style="stop-color:#bf0000;stop-opacity:1"
         offset="1"
         id="stop3777" />
    </linearGradient>
  </defs>
  <sodipodi:namedview
     id="base"
     pagecolor="#ffffff"
     bordercolor="#666666"
     borderopacity="1.0"
     inkscape:pageopacity="0.0"
     inkscape:pageshadow="2"
     inkscape:zoom="3.1305716"
     inkscape:cx="46.660566"
     inkscape:cy="66.37405"
     inkscape:current-layer="layer1"
     showgrid="true"
     inkscape:document-units="px"
     inkscape:grid-bbox="true"
     guidetolerance="4"
     showguides="false"
     inkscape:guide-bbox="true"
     inkscape:window-width="1366"
     inkscape:window-height="706"
     inkscape:window-x="0"
     inkscape:window-y="0"
     objecttolerance="4"
     gridtolerance="4"
     inkscape:snap-nodes="true"
     inkscape:window-maximized="1">
    <sodipodi:guide
       orientation="horizontal"
       position="-32.073749"
       id="guide2204"
       inkscape:locked="false" />
    <inkscape:grid
       id="GridFromPre046Settings"
       type="xygrid"
       originx="0"
       originy="0"
       spacingx="8"
       spacingy="8"
       color="#0000ff"
       empcolor="#0000ff"
       opacity="0.2"
       empopacity="0.4"
       empspacing="1"
       visible="true"
       enabled="true" />
  </sodipodi:namedview>
  <metadata
     id="metadata1312">
    <rdf:RDF>
      <cc:Work
         rdf:about="">
        <dc:format>image/svg+xml</dc:format>
        <dc:type
           rdf:resource="http://purl.org/dc/dcmitype/StillImage" />
        <cc:license
           rdf:resource="http://creativecommons.org/licenses/GPL/2.0/" />
        <dc:contributor>
          <cc:Agent>
            <dc:title>Oxygen team</dc:title>
          </cc:Agent>
        </dc:contributor>
        <dc:title></dc:title>
      </cc:Work>
      <cc:License
         rdf:about="http://creativecommons.org/licenses/LGPL/2.1/">
        <cc:permits
           rdf:resource="http://web.resource.org/cc/Reproduction" />
        <cc:permits
           rdf:resource="http://web.resource.org/cc/Distribution" />
        <cc:requires
           rdf:resource="http://web.resource.org/cc/Notice" />
        <cc:permits
           rdf:resource="http://web.resource.org/cc/DerivativeWorks" />
        <cc:requires
           rdf:resource="http://web.resource.org/cc/ShareAlike" />
        <cc:requires
           rdf:resource="http://web.resource.org/cc/SourceCode" />
      </cc:License>
    </rdf:RDF>
  </metadata>
  <g
     id="layer1"
     inkscape:label="Layer 1"
     inkscape:groupmode="layer">
    <use
       x="0"
       y="0"
       xlink:href="#rect1677"
       id="use1757"
       transform="translate(-80)"
       width="100%"
       height="100%" />
    <use
       height="100%"
       width="100%"
       transform="translate(-120,32)"
       id="use1759"
       xlink:href="#rect1677"
       y="0"
       x="0" />
    <use
       x="0"
       y="0"
       xlink:href="#rect1677"
       id="use1761"
       transform="translate(-120,120)"
       width="100%"
       height="100%" />
    <use
       height="100%"
       width="100%"
       transform="translate(-32,120)"
       id="use1763"
       xlink:href="#rect1677"
       y="0"
       x="0" />
    <use
       x="0"
       y="0"
       xlink:href="#rect1677"
       id="use1765"
       transform="translate(0,80)"
       width="100%"
       height="100%" />
    <rect
       width="146.28384"
       height="146.28384"
       x="-9.1419191"
       y="-9.1419172"
       id="rect5487"
       style="opacity:0;fill:#e7e7e7;fill-opacity:1;fill-rule:nonzero;stroke:none;stroke-width:9.14274025;stroke-linecap:round;stroke-miterlimit:4;stroke-dasharray:none;stroke-dashoffset:0;stroke-opacity:1" />
    <g
       id="g32319"
       transform="matrix(0.74999783,0,0,0.74999783,11.999375,45.269979)">
      <rect
         style="opacity:0.75;fill:url(#linearGradient5501);fill-opacity:1;fill-rule:nonzero;stroke:none;stroke-width:18.2854805;stroke-linecap:round;stroke-linejoin:round;stroke-miterlimit:4;stroke-dasharray:none;stroke-dashoffset:4;stroke-opacity:1"
         id="rect5489"
         transform="matrix(0,1,1,0,0,0)"
         y="-5.3325152"
         x="-7.026659"
         ry="4.219727"
         rx="3.628262"
         height="106.66698"
         width="106.66698" />
      <rect
         style="fill:url(#linearGradient5503);fill-opacity:1;fill-rule:evenodd;stroke:none;stroke-width:73.141922;stroke-linecap:round;stroke-linejoin:round;stroke-miterlimit:4;stroke-dasharray:none;stroke-opacity:1"
         id="rect5491"
         transform="matrix(0,1,1,0,0,0)"
         y="5.3341823"
         x="3.6400385"
         ry="2.0317206"
         rx="1.6879668"
         height="85.33358"
         width="85.33358" />
      <path
         inkscape:connector-curvature="0"
         style="fill:url(#linearGradient5505);fill-opacity:1;fill-rule:evenodd;stroke:none;stroke-width:9.14274025px;stroke-linecap:butt;stroke-linejoin:miter;stroke-opacity:1"
         id="path5493"
         d="M 90.667762,31.573906 C 69.118094,51.078937 33.618085,68.609288 5.3341821,79.999954 V 30.306782 C 32.41264,27.523549 69.066163,23.551079 90.667762,11.573906 Z"
         sodipodi:nodetypes="ccccc" />
    </g>
    <circle
       id="path1671"
       style="opacity:1;vector-effect:none;fill:url(#linearGradient1705);fill-opacity:1;stroke:none;stroke-width:7.45166254;stroke-linecap:butt;stroke-linejoin:miter;stroke-miterlimit:4;stroke-dasharray:none;stroke-dashoffset:0;stroke-opacity:1"
       cx="84.001114"
       cy="43.998886"
       r="40.984135" />
    <rect
       style="opacity:1;vector-effect:none;fill:url(#linearGradient931);fill-opacity:1;stroke:none;stroke-width:3.08015561;stroke-linecap:butt;stroke-linejoin:miter;stroke-miterlimit:4;stroke-dasharray:none;stroke-dashoffset:0;stroke-opacity:1"
       id="rect1677"
       width="8"
       height="8"
       x="120"
       y="0" />
    <g
       id="g900"
       transform="matrix(1.0728257,0,0,1.0728257,-7.4925367,-1.091083)">
      <circle
         r="32.102268"
         cy="42.029163"
         cx="85.289543"
         id="path1669"
         style="opacity:1;vector-effect:none;fill:url(#linearGradient1749);fill-opacity:1;stroke:none;stroke-width:5.83677673;stroke-linecap:butt;stroke-linejoin:miter;stroke-miterlimit:4;stroke-dasharray:none;stroke-dashoffset:0;stroke-opacity:1" />
      <path
         inkscape:connector-curvature="0"
         id="path1751"
         d="M 110.64543,21.330439 C 93.457575,30.397415 71.538666,40.486702 52.825046,42.410159 v 2.591274 A 32.448251,32.448251 0 0 0 74.336242,71.798831 C 89.838543,61.35358 105.02145,47.718184 117.11518,36.762384 a 32.448251,32.448251 0 0 0 -6.46975,-15.431945 z"
         style="fill:url(#linearGradient1755);fill-opacity:1;fill-rule:evenodd;stroke:none;stroke-width:7.58960819px;stroke-linecap:butt;stroke-linejoin:miter;stroke-opacity:1" />
    </g>
    <path
       inkscape:connector-curvature="0"
       style="opacity:0.98999999;fill:#10c4f8;fill-opacity:0.28823529;stroke:none;stroke-width:5.47016287;stroke-linecap:square;stroke-linejoin:round;stroke-miterlimit:4;stroke-dasharray:none;stroke-dashoffset:0;stroke-opacity:1"
       d="M 40,0 V 32 H 0 v 96 H 96 V 88 h 32 V 0 Z"
       id="rect5288"
       sodipodi:nodetypes="ccccccccc" />
    <g
       id="g922"
       transform="matrix(0,8,-8,0,324.17634,-269.76448)">
      <path
         sodipodi:nodetypes="cccccccccc"
         id="path4759"
         d="m 34.72056,39.522042 4,-10e-6 -2e-5,-1.00001 -2,2e-5 4.00001,-4 -1.00001,-1.00001 -3.99999,4 2e-5,-2 -1.00001,2e-5 z"
         style="display:inline;fill:none;fill-opacity:1;fill-rule:evenodd;stroke:url(#radialGradient5133);stroke-width:2;stroke-linecap:butt;stroke-linejoin:round;stroke-miterlimit:4;stroke-dasharray:none;stroke-opacity:1"
         inkscape:connector-curvature="0" />
      <path
         style="display:inline;fill:url(#linearGradient5131);fill-opacity:1;fill-rule:evenodd;stroke:none;stroke-width:1px;stroke-linecap:butt;stroke-linejoin:miter;stroke-opacity:1"
         d="m 34.72056,39.522042 4,-10e-6 -2e-5,-1.00001 -2,2e-5 4.00001,-4 -1.00001,-1.00001 -3.99999,4 2e-5,-2 -1.00001,2e-5 z"
         id="path4761"
         sodipodi:nodetypes="cccccccccc"
         inkscape:connector-curvature="0" />
    </g>
  </g>
</svg>
